X: 22897
T: Larkin's 25th
R: jig
M: 6/8
K: Gmajor
|:F|DGA BAB|GBd cAd|DGA B2G|ABG AFD|
B2G AFD|GFG ABc|dfa gfd|cAF G2:|
|:D|GBd gfg|dBG AFD|GBd cBc|dfa g2f|
gbg afd|ceg dBG|DGA BdB|cAF G2:|
|:A|BAB GBd|efg dBG|DGA B2G|ABG ABd|
gfg afd|ceg dBG|DGA BdB|cAF G2:|

